sites/Tartarya/images/main/sword-icon.svg

<svg width="30" height="30" viewBox="0 0 30 30" fill="none" xmlns="http://www.w3.org/2000/svg">
<path d="M29.9999 0L23.7537 2.8933L19.1822 7.44717L17.4859 5.32336L15.4565 11.1586L10.6887 15.9084L8.99225 13.7847L7.07808 19.289L8.35894 20.5648L24.692 4.29362L25.5362 5.1345L9.20303 21.4059L10.5288 22.7265L15.368 17.9055L20.6794 16.0725L18.7462 14.54L23.8614 9.44429L29.173 7.61108L27.1834 6.03393L30 0H29.9999ZM1.06873 16.0396L1.0686 18.5689L2.58835 18.5476L11.3858 27.3118L11.3643 28.8256H13.9035L13.8857 26.3097H12.4375L3.59429 17.5002V16.0574L1.06873 16.0396ZM5.63148 23.261L0 28.8712L1.13299 30L6.76459 24.3898L5.63148 23.2611V23.261Z" fill="#688494"/>
</svg>

<svg width="30" height="30" fill="none" xmlns="http://www.w3.org/2000/svg"><path d="m30 0-6.246 2.893-4.572 4.554-1.696-2.124-2.03 5.836-4.767 4.75-1.697-2.124-1.914 5.504 1.28 1.276L24.693 4.294l.844.84L9.203 21.406l1.326 1.32 4.839-4.82 5.311-1.833-1.933-1.533 5.115-5.096 5.312-1.833-1.99-1.577L30 0ZM1.069 16.04v2.529l1.52-.021 8.797 8.764-.022 1.514h2.54l-.018-2.516h-1.448L3.594 17.5v-1.443L1.07 16.04ZM5.63 23.26 0 28.871 1.133 30l5.632-5.61L5.63 23.26Z" fill="#688494"/></svg>
